src/topics/icons/travis-ci-monochrome.svg

<svg height="253" preserveAspectRatio="xMidYMid" viewBox="0 0 256 253" width="256" xmlns="http://www.w3.org/2000/svg"><g fill="#403e42"><path d="m168.485346 152.202541c.308405 8.564656 4.889499 8.500405 10.337983 8.301227 7.337462-.134927 11.365998-2.383712 15.047579-.610384-.057826-.205604-1.207918-3.643031-6.290171-3.045497.591109-1.272169.841688-2.994096.661785-5.358532-.66821-8.55823-5.647661-15.355984-11.108994-15.163231-5.448483.186328-8.950162 7.292486-8.648182 15.876417zm8.134174-10.440784c1.535598-.032126 2.814193 1.195068 2.833468 2.737092.032126 1.535598-1.201493 2.814193-2.730666 2.839893-1.542024.0257-2.814193-1.207918-2.839894-2.749942-.032125-1.535598 1.201494-2.801343 2.737092-2.827043z"/><path d="m93.6843545 162.045791c.5654086.012851 1.1565177 0 1.7604769-.01285.526858 0 1.0537161-.01285 1.6062745-.032125 5.4677581-.051401 9.9974521.462607 9.9267761-8.108474-.089951-8.571081-3.893609-15.510187-9.3613675-15.452361-5.4549082.051401-10.7363388 7.080458-10.421509 15.645114.0963765 2.235934.4240565 3.842209.9509145 5.005151-4.7545725 1.201494-6.0717176 4.137763-6.1488188 4.324091 2.9940957-1.612699 6.3801223-1.381396 11.6872533-1.368546zm4.6967467-18.215153c1.5420235-.0514 2.8206178 1.169368 2.8720188 2.711392.038551 1.535598-1.182218 2.820618-2.7178165 2.859168-1.5420235.051401-2.8270431-1.175793-2.8655937-2.711391-.0449757-1.535598 1.1693678-2.827043 2.7113914-2.859169z"/><path d="m111.212022 52.4978698h15.330284v-6.3222965h3.450278v29.2084957h-5.210755v16.3390243h26.837635v-16.3390243h-5.21718v-29.2084957h3.456703v6.3222965h15.343134v-21.6461553h-53.990099z"/><path d="m255.005716 94.2353067c-.096376-1.8568534-.276279-3.7072816-.526858-5.5320094-.128502-.9252142-.263429-1.8504283-.456182-2.7563671-.179903-.9380643-.359805-1.8054526-.661785-2.8270431l-.192753-.719611-.507583-.4047812c-2.923419-2.2873349-6.065292-4.0221114-9.258566-5.5512847-2.640715-1.246469-5.319981-2.3323106-8.024947-3.3282008-7.562341-20.97152-20.541039-39.5657537-37.625375-52.5123263-17.649744-13.38990428-38.409236-20.47678741-60.023265-20.47678741-21.62688 0-42.3799471 7.08688313-60.0361165 20.47678741-13.4477302 10.1902055-24.3382714 23.8885145-32.0548141 39.4822275h-.0385506c-2.0881569 4.2212894-3.9642855 8.5646557-5.57056 13.0300988-2.7113914.9958902-5.3906573 2.0817318-8.0313726 3.3282008-3.1996988 1.5291733-6.3351466 3.2639498-9.2585662 5.5512847l-.5140079.4047812-.1927529.719611c-.2955545 1.0215905-.4883075 1.8889788-.6682102 2.8270431-.1799028.9059388-.32768 1.8311529-.4497569 2.7563671-.1863278 1.3171451-.3084047 2.6535654-.4176314 3.9899858h.0449757c-.0449757.5140079-.0835262 1.0280157-.1092266 1.5484487-.1863279 3.7072815-.0835263 7.4145632.3212549 11.1025692.3919309 3.681581 1.0729913 7.324612 2.0560313 10.941942.5140079 1.799028 1.0986918 3.56593 1.7926024 5.332832.3405302.880238.7131859 1.754051 1.1308172 2.63429.2056032.436906.4304816.867388.65536 1.31072l.3662306.648935c.1413522.244153.2377287.417631.4497569.732461l.3662306.578259.591109.301979c.6232345.321255 1.1436675.558984 1.7090761.828838l1.6448251.745311c.3019796.122077.5975341.250579.9123639.379081-7.4980894 6.926256-15.6451137 15.927818-22.69344627 27.056088l-8.89876078 14.025989 12.49681565-10.967642c.2184534-.186328 10.6913632-9.252142 28.1676298-19.538724l.2441538 2.011056.6360847 5.069402 3.1996988 26.002372c.0706761.494733.32768.938065.7388863 1.220769l6.5600251 4.606795c.1156517.366231.2248784.732461.3341051 1.111542.1542023.520433.2955545 1.034441.4561819 1.554874l1.4970479 4.516844c3.2832251 10.209481 7.934996 19.416646 13.5955074 27.505844-.2698541.083527-.5461333.160628-.8159874.237729-3.4117271-1.580574-15.330284-7.106158-19.33312-8.911611l-8.3719028-3.758682 4.9537506 7.729393c.3598055.558983 8.9051859 13.884637 15.8764173 22.866924 6.5343247 8.384753 15.471636 16.942983 32.3310933 16.942983 2.0239059 0 4.1570384-.128502 6.3415718-.359805 5.030852-.584684 8.808809-1.034441 11.680828-1.407097 17.69472 6.51505 37.214168 6.900555 55.737726-.109227 5.075827-1.927529 9.695473-4.25984 13.929612-6.88128.089952-.01285.173478-.03855.250579-.057825 6.887705-1.657676 14.707049-3.527379 18.568533-4.606796.61681-.167052 1.394247-.35338 2.197384-.546133 5.377807-1.227194 14.366519-3.321776 19.153217-12.908022 4.825249-9.676198 12.702419-24.492474 12.77952-24.640251l3.688006-6.89413-7.163984 3.116172c-.391931.167053-9.477019 4.131338-14.199467 6.605001-.160627.096377-.36623.179903-.552558.269854 3.842209-7.832194 5.756888-14.070964 6.444373-16.467526l2.589315-10.684938 7.459539-16.68598s2.094582-18.240853 2.139557-18.228003l.732462-6.977656c.65536-.276279 4.63892-.552559 5.416357-.860963 1.111542-.436907 2.223084-.867389 3.334626-1.349271l1.6384-.745311c.578259-.269854 1.092267-.507583 1.715501-.828838l.591109-.30198.372656-.578258c.205603-.31483.321255-.494733.443332-.732462l.359805-.648934c.250579-.443332.462607-.873814.661785-1.31072.417632-.873814.783862-1.747627 1.143668-2.634291.687485-1.766902 1.259319-3.533804 1.779752-5.332831.976615-3.61733 1.683376-7.260361 2.056031-10.941942.411207-3.675156.501158-7.3888628.31483-11.0961443zm-170.2265474 45.0206623c.1606275-.109227 6.8620047-4.503994 17.8039464-9.856101 10.909817-.828837 22.944025-1.355695 35.839197-1.355695 3.135448 0 6.21307.044975 9.252141.096376-2.120282 1.709076-4.356216 3.321776-6.682102 4.716022l-7.729393 4.677471c-4.876649.591109-9.104363 1.805453-9.335667 1.869704-.147777.03855-.282704.102801-.404781.173478-.379081.218453-.66821.578258-.796712 1.002315l-7.902871 26.028072-42.1807686 9.374218-13.2935278-9.309967-3.867909-31.309503c7.5430651-1.394246 17.6433192-2.994095 29.7610541-4.349791-1.2978698 1.542023-2.5636141 3.173998-3.7522573 4.895925l-7.2153851 10.357258zm56.9263684 108.931112c-6.958381.462607-14.025989-.353381-20.945819-2.248785.578258-.115651.99589-.179902 1.509898-.237728.565408-.077101 12.985123-1.709076 18.568533-10.010303l.526858.01285 1.387821-.01285c.918789 0 1.754052-.077101 2.647141-.115652 2.120282-.173477 4.169888-.481882 6.206644-.893088.218454.212028.424057.424056.648935.65536 4.195589 4.157038 9.406344 6.54075 15.131106 6.958381-9.631222 3.912885-18.697035 5.429208-25.681117 5.891815zm.62966-15.227483c1.047291-2.33231 1.837578-4.150613 2.435112-5.519159 1.233619 1.374971 2.794918 3.077622 4.548969 4.895925-1.368545.205603-2.717816.379081-4.047811.488307-.873814.038551-1.786178.134927-2.62144.134927zm-20.695241-53.726669 3.771533-.848113c.623234-.134927 1.111542-.60396 1.297869-1.207919l7.877171-25.91242c1.36212-.179903 2.557189-.276279 3.591629-.276279 1.002316 0 2.216659.096376 3.572355.276279l8.108474 26.683432c.205603.68106.790287 1.175793 1.484197 1.252894l3.006946.34053.771012.083527 51.79914 5.891815c.430482.0514.854538-.070677 1.207919-.31483l5.204329-3.636606 4.812399-3.366751 1.779752-1.252894c-.28913 1.240044-.610385 2.473662-.94449 3.688006-.494732 1.593424-1.02159 3.135448-1.548448 4.664621-2.126708 6.052443-4.510419 11.545901-7.106159 16.506077-.70676.044976-1.471347.077101-2.274484.077101-2.518639 0-5.075828-.205603-7.909296-.469032-4.921625-.456182-12.715269-1.349271-15.169657-1.62555-2.139557-1.702651-9.406343-7.465964-15.43951-12.226961-.231304-.179903-.436907-.372656-.648935-.539709-1.060141-.899513-2.26806-1.914679-4.716022-1.914679-2.235934 0-5.487034.809563-13.344929 3.180424 4.092788-3.058347 4.124913-6.996932 4.124913-6.996932s-5.821139 5.422783-15.214632 6.617851c-9.367793 1.207918-16.73738-4.555395-16.73738-4.555395.308404 1.002316.745311 3.270375 2.872019 5.19148-2.499364-.28913-5.197905-.494733-8.031373-.494733-1.015165 0-2.056031.025701-3.051922.077101-5.769738.308405-13.891061 9.020838-19.5901235 17.816797-2.8013427.886664-11.5587513 3.668731-21.6847058 6.643552-5.9817663-8.275527-10.0360032-16.67313-12.3297632-22.076637-1.3364204-3.148298-2.0817317-5.287856-2.2487843-5.795439v-.01285c-.1863278-.514008-.3855059-1.060141-.5589835-1.606274l2.428687 1.696225v.012851l6.0074667 4.214864 2.0046306 1.394246c.3019796.212028.6682102.321255 1.0151655.321255.128502 0 .2570039-.01285.391931-.03855zm31.958438-38.65339c-.179903-.578259-.62966-1.008741-1.207919-1.182218-.263429-.083526-5.474183-1.567724-11.006193-2.036756l1.015166-.077101c.873813-.064251 15.40096-1.837579 32.75515-7.82577 19.217468 1.471348 34.907557 3.829359 45.637471 5.782588l-3.797233 26.638457-13.402754 9.374218-42.129368-4.786698zm92.489286-35.884173c-.469032 3.431003-2.023906 10.113105-2.023906 10.113105l-1.214343.199178c-.636085-.173478-6.560026-1.709076-16.763081-3.598055.32768-.070676.64251-.141352.950914-.212029 2.113858-.526858 4.195589-1.175792 6.219495-1.99178 1.002316-.430481 2.004631-.886663 2.94912-1.426372.938065-.546133 1.856854-1.150092 2.576465-1.96608-10.215906 3.341051-31.328779 1.824728-50.09649-.115651-17.148587-1.773327-34.361424-2.916995-51.657788-2.955546-17.289939.038551-34.483501 1.188644-51.6513633 2.955546-18.7677113 1.940379-39.8741584 3.456702-50.0900643.115651.719611.809563 1.6448251 1.419947 2.5893145 1.96608.9380644.539709 1.9339546.989465 2.9362698 1.426372 2.0174808.809562 4.1120628 1.464922 6.22592 1.99178.7453114.173478 1.503473.340531 2.2616346.475458-9.3099671 1.766902-14.7006244 3.167573-15.3045836 3.334626 0 0-2.1459827.346955-2.6150149-1.29787-.9316392-3.28965-1.5548737-5.589835-2.0239059-9.014413-.4433317-3.411727-.6682102-6.8620044-.6425098-10.305857.0064251-.5654086-.0064251-1.6962259-.0064251-1.6962259.0321255-1.1565176.0835263-2.3130353.192753-3.4695529.064251-.854538 3.2061239-3.5916298 5.9046651-5.1465035 2.9169945-1.6962259 5.9817663-3.2253992 9.1043639-4.6453459 3.0904722-1.4649224 13.1072-3.5916298 19.1467922-4.6838965 6.0395921-1.1051168 27.6407717-3.9707106 29.2598964-4.5746698 1.6126996-.6168094 10.9483674-7.8129192 12.5803424-8.4104533-3.431003.5654086-50.8353761 7.8064941-52.9685086 8.4811294 15.3881098-40.240389 45.5924956-59.8369381 85.7943336-59.8369381 40.188989 0 70.3998 18.5042824 85.80076 58.7510965-20.329011-5.4035074-48.48379-7.9221459-51.914792-8.4939796 1.631974.5975341 10.86484 7.0933082 12.580341 7.3117616 14.058115 1.8247278 36.224703 6.7399278 37.830978 7.3760125 3.186848 1.2914447 6.380122 2.62144 9.477019 4.0799373 3.129023 1.4199467 6.18737 2.94912 9.104364 4.6453459 2.698541 1.5612988 5.833989 4.2919655 5.91109 5.1465035.147778 1.7219263.212029 3.4374274.231304 5.1593537.0257 3.4438526-.212028 6.9005551-.65536 10.3122821z"/></g></svg>

<?xml version="1.0" encoding="UTF-8" standalone="no" ?>
<svg width="256px" height="253px" viewBox="0 0 256 253" version="1.1" xmlns="http://www.w3.org/2000/svg" xmlns:xlink="http://www.w3.org/1999/xlink" preserveAspectRatio="xMidYMid">
    <g fill="#403E42">
        <path d="M168.485346,152.202541 C168.793751,160.767197 173.374845,160.702946 178.823329,160.503768 C186.160791,160.368841 190.189327,158.120056 193.870908,159.893384 C193.813082,159.68778 192.66299,156.250353 187.580737,156.847887 C188.171846,155.575718 188.422425,153.853791 188.242522,151.489355 C187.574312,142.931125 182.594861,136.133371 177.133528,136.326124 C171.685045,136.512452 168.183366,143.61861 168.485346,152.202541 L168.485346,152.202541 Z M176.61952,141.761757 C178.155118,141.729631 179.433713,142.956825 179.452988,144.498849 C179.485114,146.034447 178.251495,147.313042 176.722322,147.338742 C175.180298,147.364442 173.908129,146.130824 173.882428,144.5888 C173.850303,143.053202 175.083922,141.787457 176.61952,141.761757 L176.61952,141.761757 Z"></path>
        <path d="M93.6843545,162.045791 C94.2497631,162.058642 94.8408722,162.045791 95.4448314,162.032941 C95.9716894,162.032941 96.4985475,162.020091 97.0511059,162.000816 C102.518864,161.949415 107.048558,162.463423 106.977882,153.892342 C106.887931,145.321261 103.084273,138.382155 97.6165145,138.439981 C92.1616063,138.491382 86.8801757,145.520439 87.1950055,154.085095 C87.291382,156.321029 87.619062,157.927304 88.14592,159.090246 C83.3913475,160.29174 82.0742024,163.228009 81.9971012,163.414337 C84.9911969,161.801638 88.3772235,162.032941 93.6843545,162.045791 L93.6843545,162.045791 Z M98.3811012,143.830638 C99.9231247,143.779238 101.201719,145.000006 101.25312,146.54203 C101.291671,148.077628 100.070902,149.362648 98.5353035,149.401198 C96.99328,149.452599 95.7082604,148.225405 95.6697098,146.689807 C95.6247341,145.154209 96.8390776,143.862764 98.3811012,143.830638 L98.3811012,143.830638 Z"></path>
        <path d="M111.212022,52.4978698 L126.542306,52.4978698 L126.542306,46.1755733 L129.992584,46.1755733 L129.992584,75.384069 L124.781829,75.384069 L124.781829,91.7230933 L151.619464,91.7230933 L151.619464,75.384069 L146.402284,75.384069 L146.402284,46.1755733 L149.858987,46.1755733 L149.858987,52.4978698 L165.202121,52.4978698 L165.202121,30.8517145 L111.212022,30.8517145 L111.212022,52.4978698 Z"></path>
        <path d="M255.005716,94.2353067 C254.90934,92.3784533 254.729437,90.5280251 254.478858,88.7032973 C254.350356,87.7780831 254.215429,86.852869 254.022676,85.9469302 C253.842773,85.0088659 253.662871,84.1414776 253.360891,83.1198871 L253.168138,82.4002761 L252.660555,81.9954949 C249.737136,79.70816 246.595263,77.9733835 243.401989,76.4442102 C240.761274,75.1977412 238.082008,74.1118996 235.377042,73.1160094 C227.814701,52.1444894 214.836003,33.5502557 197.751667,20.6036831 C180.101923,7.21377882 159.342431,0.126895686 137.728402,0.126895686 C116.101522,0.126895686 95.3484549,7.21377882 77.6922855,20.6036831 C64.2445553,30.7938886 53.3540141,44.4921976 45.6374714,60.0859106 L45.5989208,60.0859106 C43.5107639,64.3072 41.6346353,68.6505663 40.0283608,73.1160094 C37.3169694,74.1118996 34.6377035,75.1977412 31.9969882,76.4442102 C28.7972894,77.9733835 25.6618416,79.70816 22.738422,81.9954949 L22.2244141,82.4002761 L22.0316612,83.1198871 C21.7361067,84.1414776 21.5433537,85.0088659 21.363451,85.9469302 C21.1835482,86.852869 21.035771,87.7780831 20.9136941,88.7032973 C20.7273663,90.0204424 20.6052894,91.3568627 20.4960627,92.6932831 L20.5410384,92.6932831 C20.4960627,93.207291 20.4575122,93.7212988 20.4318118,94.2417318 C20.2454839,97.9490133 20.3482855,101.656295 20.7530667,105.344301 C21.1449976,109.025882 21.826058,112.668913 22.809098,116.286243 C23.3231059,118.085271 23.9077898,119.852173 24.6017004,121.619075 C24.9422306,122.499313 25.3148863,123.373126 25.7325176,124.253365 C25.9381208,124.690271 26.1629992,125.120753 26.3878776,125.564085 L26.7541082,126.21302 C26.8954604,126.457173 26.9918369,126.630651 27.2038651,126.945481 L27.5700957,127.52374 L28.1612047,127.825719 C28.7844392,128.146974 29.3048722,128.384703 29.8702808,128.654557 L31.5151059,129.399868 C31.8170855,129.521945 32.11264,129.650447 32.4274698,129.778949 C24.9293804,136.705205 16.7823561,145.706767 9.73402353,156.835037 L0.835262745,170.861026 L13.3320784,159.893384 C13.5505318,159.707056 24.0234416,150.641242 41.4997082,140.35466 L41.743862,142.365716 L42.3799467,147.435118 L45.5796455,173.43749 C45.6503216,173.932223 45.9073255,174.375555 46.3185318,174.658259 L52.8785569,179.265054 C52.9942086,179.631285 53.1034353,179.997515 53.212662,180.376596 C53.3668643,180.897029 53.5082165,181.411037 53.6688439,181.93147 L55.1658918,186.448314 C58.4491169,196.657795 63.1008878,205.86496 68.7613992,213.954158 C68.4915451,214.037685 68.2152659,214.114786 67.9454118,214.191887 C64.5336847,212.611313 52.6151278,207.085729 48.6122918,205.280276 L40.240389,201.521594 L45.1941396,209.250987 C45.5539451,209.80997 54.0993255,223.135624 61.0705569,232.117911 C67.6048816,240.502664 76.5421929,249.060894 93.4016502,249.060894 C95.4255561,249.060894 97.5586886,248.932392 99.743222,248.701089 C104.774074,248.116405 108.552031,247.666648 111.42405,247.293992 C129.11877,253.809042 148.638218,254.194547 167.161776,247.184765 C172.237603,245.257236 176.857249,242.924925 181.091388,240.303485 C181.18134,240.290635 181.264866,240.264935 181.341967,240.24566 C188.229672,238.587984 196.049016,236.718281 199.9105,235.638864 C200.52731,235.471812 201.304747,235.285484 202.107884,235.092731 C207.485691,233.865537 216.474403,231.770955 221.261101,222.184709 C226.08635,212.508511 233.96352,197.692235 234.040621,197.544458 L237.728627,190.650328 L230.564643,193.7665 C230.172712,193.933553 221.087624,197.897838 216.365176,200.371501 C216.204549,200.467878 215.998946,200.551404 215.812618,200.641355 C219.654827,192.809161 221.569506,186.570391 222.256991,184.173829 L224.846306,173.488891 L232.305845,156.802911 C232.305845,156.802911 234.400427,138.562058 234.445402,138.574908 L235.177864,131.597252 C235.833224,131.320973 239.816784,131.044693 240.594221,130.736289 C241.705763,130.299382 242.817305,129.8689 243.928847,129.387018 L245.567247,128.641707 C246.145506,128.371853 246.659514,128.134124 247.282748,127.812869 L247.873857,127.510889 L248.246513,126.932631 C248.452116,126.617801 248.567768,126.437898 248.689845,126.200169 L249.04965,125.551235 C249.300229,125.107903 249.512257,124.677421 249.711435,124.240515 C250.129067,123.366701 250.495297,122.492888 250.855103,121.606224 C251.542588,119.839322 252.114422,118.07242 252.634855,116.273393 C253.61147,112.656063 254.318231,109.013032 254.690886,105.331451 C255.102093,101.656295 255.192044,97.9425882 255.005716,94.2353067 L255.005716,94.2353067 Z M84.7791686,139.255969 C84.9397961,139.146742 91.6411733,134.751975 102.583115,129.399868 C113.492932,128.571031 125.52714,128.044173 138.422312,128.044173 C141.55776,128.044173 144.635382,128.089148 147.674453,128.140549 C145.554171,129.849625 143.318237,131.462325 140.992351,132.856571 L133.262958,137.534042 C128.386309,138.125151 124.158595,139.339495 123.927291,139.403746 C123.779514,139.442296 123.644587,139.506547 123.52251,139.577224 C123.143429,139.795677 122.8543,140.155482 122.725798,140.579539 L114.822927,166.607611 L72.6421584,175.981829 L59.3486306,166.671862 L55.4807216,135.362359 C63.0237867,133.968113 73.1240408,132.368264 85.2417757,131.012568 C83.9439059,132.554591 82.6781616,134.186566 81.4895184,135.908493 L74.2741333,146.265751 L84.7791686,139.255969 L84.7791686,139.255969 Z M141.705537,248.187081 C134.747156,248.649688 127.679548,247.8337 120.759718,245.938296 C121.337976,245.822645 121.755608,245.758394 122.269616,245.700568 C122.835024,245.623467 135.254739,243.991492 140.838149,235.690265 L141.365007,235.703115 L142.752828,235.690265 C143.671617,235.690265 144.50688,235.613164 145.399969,235.574613 C147.520251,235.401136 149.569857,235.092731 151.606613,234.681525 C151.825067,234.893553 152.03067,235.105581 152.255548,235.336885 C156.451137,239.493923 161.661892,241.877635 167.386654,242.295266 C157.755432,246.208151 148.689619,247.724474 141.705537,248.187081 L141.705537,248.187081 Z M142.335197,232.959598 C143.382488,230.627288 144.172775,228.808985 144.770309,227.440439 C146.003928,228.81541 147.565227,230.518061 149.319278,232.336364 C147.950733,232.541967 146.601462,232.715445 145.271467,232.824671 C144.397653,232.863222 143.485289,232.959598 142.650027,232.959598 L142.335197,232.959598 L142.335197,232.959598 Z M121.639956,179.232929 L125.411489,178.384816 C126.034723,178.249889 126.523031,177.780856 126.709358,177.176897 L134.586529,151.264477 C135.948649,151.084574 137.143718,150.988198 138.178158,150.988198 C139.180474,150.988198 140.394817,151.084574 141.750513,151.264477 L149.858987,177.947909 C150.06459,178.628969 150.649274,179.123702 151.343184,179.200803 L154.35013,179.541333 L155.121142,179.62486 L206.920282,185.516675 C207.350764,185.568075 207.77482,185.445998 208.128201,185.201845 L213.33253,181.565239 L218.144929,178.198488 L219.924681,176.945594 C219.635551,178.185638 219.314296,179.419256 218.980191,180.6336 C218.485459,182.227024 217.958601,183.769048 217.431743,185.298221 C215.305035,191.350664 212.921324,196.844122 210.325584,201.804298 C209.618824,201.849274 208.854237,201.881399 208.0511,201.881399 C205.532461,201.881399 202.975272,201.675796 200.141804,201.412367 C195.220179,200.956185 187.426535,200.063096 184.972147,199.786817 C182.83259,198.084166 175.565804,192.320853 169.532637,187.559856 C169.301333,187.379953 169.09573,187.1872 168.883702,187.020147 C167.823561,186.120634 166.615642,185.105468 164.16768,185.105468 C161.931746,185.105468 158.680646,185.915031 150.822751,188.285892 C154.915539,185.227545 154.947664,181.28896 154.947664,181.28896 C154.947664,181.28896 149.126525,186.711743 139.733032,187.906811 C130.365239,189.114729 122.995652,183.351416 122.995652,183.351416 C123.304056,184.353732 123.740963,186.621791 125.867671,188.542896 C123.368307,188.253766 120.669766,188.048163 117.836298,188.048163 C116.821133,188.048163 115.780267,188.073864 114.784376,188.125264 C109.014638,188.433669 100.893315,197.146102 95.1942525,205.942061 C92.3929098,206.828725 83.6355012,209.610792 73.5095467,212.585613 C67.5277804,204.310086 63.4735435,195.912483 61.1797835,190.508976 C59.8433631,187.360678 59.0980518,185.22112 58.9309992,184.713537 L58.9309992,184.700687 C58.7446714,184.186679 58.5454933,183.640546 58.3720157,183.094413 L60.8007027,184.790638 L60.8007027,184.803489 L66.8081694,189.018353 L68.8128,190.412599 C69.1147796,190.624627 69.4810102,190.733854 69.8279655,190.733854 C69.9564675,190.733854 70.0849694,190.721004 70.2198965,190.695304 L121.639956,179.232929 Z M153.598394,140.579539 C153.418491,140.00128 152.968734,139.570798 152.390475,139.397321 C152.127046,139.313795 146.916292,137.829597 141.384282,137.360565 L142.399448,137.283464 C143.273261,137.219213 157.800408,135.445885 175.154598,129.457694 C194.372066,130.929042 210.062155,133.287053 220.792069,135.240282 L216.994836,161.878739 L203.592082,171.252957 L161.462714,166.466259 L153.598394,140.579539 Z M246.08768,104.695366 C245.618648,108.126369 244.063774,114.808471 244.063774,114.808471 L242.849431,115.007649 C242.213346,114.834171 236.289405,113.298573 226.08635,111.409594 C226.41403,111.338918 226.72886,111.268242 227.037264,111.197565 C229.151122,110.670707 231.232853,110.021773 233.256759,109.205785 C234.259075,108.775304 235.26139,108.319122 236.205879,107.779413 C237.143944,107.23328 238.062733,106.629321 238.782344,105.813333 C228.566438,109.154384 207.453565,107.638061 188.685854,105.697682 C171.537267,103.924355 154.32443,102.780687 137.028066,102.742136 C119.738127,102.780687 102.544565,103.93078 85.3767027,105.697682 C66.6089914,107.638061 45.5025443,109.154384 35.2866384,105.813333 C36.0062494,106.622896 36.9314635,107.23328 37.8759529,107.779413 C38.8140173,108.319122 39.8099075,108.768878 40.8122227,109.205785 C42.8297035,110.015347 44.9242855,110.670707 47.0381427,111.197565 C47.7834541,111.371043 48.5416157,111.538096 49.2997773,111.673023 C39.9898102,113.439925 34.5991529,114.840596 33.9951937,115.007649 C33.9951937,115.007649 31.849211,115.354604 31.3801788,113.709779 C30.4485396,110.420129 29.8253051,108.119944 29.3562729,104.695366 C28.9129412,101.283639 28.6880627,97.8333616 28.7137631,94.389509 C28.7201882,93.8241004 28.707338,92.6932831 28.707338,92.6932831 C28.7394635,91.5367655 28.7908643,90.3802478 28.900091,89.2237302 C28.964342,88.3691922 32.1062149,85.6321004 34.8047561,84.0772267 C37.7217506,82.3810008 40.7865224,80.8518275 43.90912,79.4318808 C46.9995922,77.9669584 57.01632,75.840251 63.0559122,74.7479843 C69.0955043,73.6428675 90.6966839,70.7772737 92.3158086,70.1733145 C93.9285082,69.5565051 103.264176,62.3603953 104.896151,61.7628612 C101.465148,62.3282698 54.0607749,69.5693553 51.9276424,70.2439906 C67.3157522,30.0036016 97.520138,10.4070525 137.721976,10.4070525 C177.910965,10.4070525 208.121776,28.9113349 223.522736,69.158149 C203.193725,63.7546416 175.038946,61.2360031 171.607944,60.6641694 C173.239918,61.2617035 182.472784,67.7574776 184.188285,67.975931 C198.2464,69.8006588 220.412988,74.7158588 222.019263,75.3519435 C225.206111,76.6433882 228.399385,77.9733835 231.496282,79.4318808 C234.625305,80.8518275 237.683652,82.3810008 240.600646,84.0772267 C243.299187,85.6385255 246.434635,88.3691922 246.511736,89.2237302 C246.659514,90.9456565 246.723765,92.6611576 246.74304,94.3830839 C246.76874,97.8269365 246.531012,101.283639 246.08768,104.695366 L246.08768,104.695366 Z"></path>
    </g>
</svg>
